X: 42
T: Take Me Out to the Ballgame
I: Take Me Out to the Ballgame	W-31	F	waltz
C: W-31
C: Albert von Tilzer
M: 3/4
Z: Transcribed to abc by Mary Lou Knack
R: waltz
K: F
"F"F2 z2 f2| d2 c2 A2| "C"c6| G6| "F"F2 z2 f2| d2 c2 A2| "C"c6-| c6|
"D7"d2 ^c2 d2| A2 B2 c2| "Gm"d4 B2| G6| "G7"d4 d2| d2 e2 f2| "C"g2 e2 d2| c2 B2 G2|
"F"F2 z2 f2| d2 c2 A2| "C"c6| G4 A2| "F"F4 G2| "F7"A2 B2 c2| "Bb"d6-| d2 d2 e2|
"Bb"f2 z4| "Bdim (Bb)"f2 z4| "F"f2 e2 d2| "D7"c2 =B2 c2| "G7"d6| "C"e6| "F"f6-| f2 z4|]
% %text 9/1/98 For use only by Roaring Jelly members

#include "RightHeader.h"
% ---------- page 21 ----------

